!!!ONB: MCCC : IJB0044_01 : Extracted Monophonic Melody
!!!COM: Brahms, Johannes
!!!OPR: 8 Klavierstücke
!!!OMV: 1
!!!SCT: Op.76
!!!ODT: 1871///
**kern
*staff1
*clefG2
*k[f#c#g#]
*A:
*M6/8
16AA
16C#
16A
16c#
16a
16cc#
=2
4.dd
16AA
16D
16A
16d
16a
16cc#
=3
4.cc
16AA
16C
16A
16c
16a
16cc
=4
4.dd#
16AA
16C
16A
16e
16a
16dd#
=5
4.cc#
16GG#
16C#
16G#
16c#
16g#
16cc#
=6
4.gg
16AA#
16C#
16A#
16g
16a#
16gg
=7
4.ff#
16FF#
16BB
16F#
16f#
16b
16ff#
=8
4.ccc
16C
16F#
16c
16ff#
16fff#
16ccc
=9
4.ccc#
16cc#
16eee#
16ddd#
16ccc#
16eeee#
16dddd#
=10
16cccc#
16ggg#
16eee#
16ddd#
16ccc#
16gg#
16ee#
16dd#
16cc#
16g#
16e#
16d#
=11
16c#
16G#
16E#
16D#
16C#
16GG#
4.r
=12
4.dd
4.dd
=13
4.cc#
4.r
=14
4.cc#
4.dd
=15
4.ff#
4.ee#
=16
4gg#
8b
8dd
8cc#
8b
=17
4a
8b
4cc
8cc#
=18
4.dd#
4.ee
=19
4.gg#
4.gg
=20
4ccc#
8gg#
8ff#
8ee
8dd#
=21
16cc#
16a
16e
16d#
8a
4r
8f#
=22
4r
8aa
8r
8ff#
8ee
=23
4dd#
8cc#
4b
8a
=24
4g
8g#
16a[
8.a]
8f#
=25
4d#
8e
4g#
8c
=26
2.c#[
=27
2.c#]
=28
16r
16c#
16G#
8.E#
16r
16c#
16A
8.F#
=29
16r
16B
16A
8.D
16r
16A
16B
8.D
=30
4.e
4.e#
=31
4.a
4.g#
=32
16r
16e
16B
8.G#
16r
16e
16c
8.A
=33
16r
16d
16c
8.E#
16r
16c
16d
8.E#
=34
8g
16g[
8.g]
8g#
16g#[
8.g#]
=35
4.ff#
4.gg
=36
4.bb
4.aa#
=37
4.aa
4.gg#
=38
8gg
8gg
8gg[
4.gg]
=39
2.ff#
=40
8cc#
8cc#
8cc#[
4.cc#]
=41
2.dd
=42
16f#
16ff#
16gg#
8.aa
16e#
16ee#
16ff#
8.gg#
=43
16c#
16cc#
16dd
8.ee
16d
16dd
16ee
8.ff#
=44
16B
16b
16cc#
16dd
8g#
16e#
16cc#
16dd#
16ee#
8g#
=45
4.a
8r
16ee
16ff#
8a
=46
4.b
8r
16ff#
16gg#
8b
=47
4cc
8ccc#
8g#
8a
8cc
=48
4cc
8cc#
4.aa[
=49
4aa]
8a
4a
8b
=50
4.cc#
8c#
4e#
=51
4.e#
4.g#
=52
2.e#
=53
2.e#
=54
2.e#
=55
2.e#
=56
2.e#
=57
2.e#
=58
2.e#
=59
2.e#
=60
2.e#
=61
2.e#
=62
2.e#
=63
2.e#
=64
4e#
8cc#
4cc#
8dd
=65
4dd
8ff#[
4ff#]
8ee#[
=66
4ee#]
8b[
4b]
8cc#[
=67
4cc#]
8ee[
4ee]
8dd#[
=68
4dd#]
8a#[
4a#]
8b[
=69
4b]
8dd[
4dd]
8b[
=70
4b]
8gg#[
4gg#]
8dd[
=71
4dd]
8cc#
8b
8a#
8b
=72
16cc#
16a#
16g#
16f#
16aa#
16gg#
16ff#
16aaa#
16ggg#
16fff#
16dddd
16cccc#
=73
16bbb
16ggg#
16bb
16ggg#
16bb
16gg#
16bb
16gg#
16b
16gg#
16b
16g#
=74
16B
16g#
8f#
8e#
4.e#
=75
2.e#
=76
2.e#[
=77
2.e#]
=78
2.r
=79
8c#
32E#
32A#
32A#
32c#
16A#
16E#
16B
16G#
16E#
32B
32B
8G#
=80
16c#
16A#
16D
16c#
16A#
16D
16B
16G#
16D
16B
16G#
16BB
=81
16A#
16F#
16AA#
16A#
16F#
16AA#
16A#
16F#
16AA#
16A#
16F#
16AA#
=82
16A#
16F#
16AA#
16A#
16F#
16AA#
16A#
16F#
16AA#
16A#
16F#
16AA#
=83
2.A#
=84
2.cc#
=85
2.a#[
=86
4.a#]
4.r
==
*-
